X: 1
T: the Internationale
C: musique: Pierre De Geyter (1888)
C: paroles: Eug\`ene Pottier (1871)
Z: John Chambers <jc@trillian.mit.edu>
M: 4/4
L: 1/8
K: A
E |  "A"A3 G BA EC | "D"F4 "Bm"D2 zF | "Bm"B3 A "E7"GF ED | "A"C6 zE |
w: A-rise ye work-ers from your slum-bers, A-rise ye pri-son-ers of want. For
| "A"A3 G BA EC | "D"F4 "Bm"D2  BA | "E"G2 GB "E7"d3 G | "A"A6 "A7"cB |
w: reas-on in re-volt now thun-ders and at last ends the age of cant. Now a-
| "E"G3 G "B7"FG AF | "E"G4 E^D EF | "B7"FF2 F B3 A | "E"G6 zB |
w: way with all your sup-er-sti-tions,* ser-vile mass-es a-rise a-rise! We'll
| "E"B3 G EE ^DE | "A7"c4 EF GA | "E"G2 B2 "B7"A2 F2 | "E"E6 || "E7"(c>B) |
w: change hence-forth the old con-di-tions  and spurn the dust to win the prize. So*
| "A"A4 E3 F | "D"F4 "Bm"D2 B>A | "E"G2 G2 "Bm"F2 E2 | "A"E6 E2 |
w: com-rades come ral-ly and the last fight let us face, the
| "A"c3 c "E"B2 E2 | "F#m"A4 "C#"G3 G | "Bm"F3 ^E F2 B2 | "E"B6 "E7"(c>B) |
w: In-ter-na-tion-al-e un-ites the hum-an race. So*
| "A"A4 E3 F | "D"F4 "Bm"D2 B>A | "E"G2 G2 "E7"G3 E | "A"c6 zc |
w: com-rades come ral-ly and last fight let us face,  the
| "F#7"e3 e "F#aug"d2 "F#"c2 | "Bm"(B2 c2) d2 zd | "A"c3 c "E7"B3 A | "A"A6 |]
w: In-ter-na-tion-al-*e un-ites the hum-an race.
%
W:Original French lyrics:
W:1.~Debout, les damn\'es de la terre
W:   Debout, les for\,cats de la faim.
W:   La raison tonne en son crat\`ere
W:   C'est l'\'eruption de la fin.
W:   Du pass\'e faisons table rase,
W:   Foule esclave, debout, debout!
W:   Le monde va changer de base,
W:   Nous ne sommes rien, soyons tout.
W:      C'est la lutte finale.
W:      Groupons-nous, et demain
W:      L'Internationale
W:      Sera le genre humain.
